assets/Yin yang/Flat/yin_yang_flat.svg

<svg width="32" height="32" viewBox="0 0 32 32" fill="none" xmlns="http://www.w3.org/2000/svg">
<path d="M30 26C30 28.2091 28.2091 30 26 30H6C3.79086 30 2 28.2091 2 26V6C2 3.79086 3.79086 2 6 2H26C28.2091 2 30 3.79086 30 6V26Z" fill="#8D65C5"/>
<path d="M16 24.5H15.969C17.0962 24.5 18.1772 24.0522 18.9742 23.2552C19.7712 22.4582 20.219 21.3772 20.219 20.25C20.219 19.1228 19.7712 18.0418 18.9742 17.2448C18.1772 16.4478 17.0962 16 15.969 16C14.8418 16.0101 13.7568 15.572 12.9527 14.7821C12.1485 13.9922 11.6911 12.9152 11.681 11.788C11.6709 10.6608 12.109 9.57583 12.8989 8.77167C13.6888 7.96752 14.7658 7.51008 15.893 7.5H16C18.2543 7.5 20.4163 8.39554 22.0104 9.9896C23.6045 11.5837 24.5 13.7457 24.5 16C24.5 18.2543 23.6045 20.4164 22.0104 22.0104C20.4163 23.6045 18.2543 24.5 16 24.5ZM16 26C17.9778 26 19.9112 25.4135 21.5557 24.3147C23.2002 23.2159 24.4819 21.6541 25.2388 19.8268C25.9957 17.9996 26.1937 15.9889 25.8079 14.0491C25.422 12.1093 24.4696 10.3275 23.0711 8.92894C21.6725 7.53041 19.8907 6.578 17.9509 6.19215C16.0111 5.8063 14.0004 6.00433 12.1732 6.76121C10.3459 7.51809 8.78412 8.79981 7.6853 10.4443C6.58649 12.0888 6 14.0222 6 16C6 18.6522 7.05357 21.1957 8.92893 23.0711C10.8043 24.9464 13.3478 26 16 26ZM15.969 22.375C15.4054 22.375 14.8649 22.1511 14.4664 21.7526C14.0679 21.3541 13.844 20.8136 13.844 20.25C13.844 19.8297 13.9686 19.4189 14.2021 19.0694C14.4356 18.72 14.7675 18.4476 15.1558 18.2868C15.5441 18.1259 15.9714 18.0838 16.3836 18.1658C16.7958 18.2478 17.1744 18.4502 17.4716 18.7474C17.7688 19.0446 17.9712 19.4232 18.0532 19.8354C18.1352 20.2476 18.0931 20.6749 17.9322 21.0632C17.7714 21.4515 17.499 21.7834 17.1496 22.0169C16.8001 22.2504 16.3893 22.375 15.969 22.375ZM16 14C16.3956 14 16.7822 13.8827 17.1111 13.6629C17.44 13.4432 17.6964 13.1308 17.8478 12.7654C17.9991 12.3999 18.0387 11.9978 17.9616 11.6098C17.8844 11.2219 17.6939 10.8655 17.4142 10.5858C17.1345 10.3061 16.7781 10.1156 16.3902 10.0384C16.0022 9.96126 15.6001 10.0009 15.2346 10.1522C14.8692 10.3036 14.5568 10.56 14.3371 10.8889C14.1173 11.2178 14 11.6044 14 12C14 12.5304 14.2107 13.0391 14.5858 13.4142C14.9609 13.7893 15.4696 14 16 14Z" fill="white"/>
</svg>

<svg xmlns="http://www.w3.org/2000/svg" width="32" height="32" fill="none"><path fill="#8D65C5" d="M30 26a4 4 0 0 1-4 4H6a4 4 0 0 1-4-4V6a4 4 0 0 1 4-4h20a4 4 0 0 1 4 4v20Z"/><path fill="#fff" d="M16 24.5h-.031a4.25 4.25 0 0 0 0-8.5 4.25 4.25 0 1 1-.076-8.5H16a8.5 8.5 0 0 1 0 17Zm0 1.5a10 10 0 1 0 0-20 10 10 0 0 0 0 20Zm-.031-3.625a2.125 2.125 0 1 1 0-4.25 2.125 2.125 0 0 1 0 4.25ZM16 14a2 2 0 1 0 0-4 2 2 0 0 0 0 4Z"/></svg>
